src/images/dist/icons/tech-icon-6.svg

<svg width="40" height="33" viewBox="0 0 40 33" fill="none" xmlns="http://www.w3.org/2000/svg">
<path d="M1.65705 32.661C1.38091 32.661 1.15705 32.4371 1.15705 32.161C1.15705 31.8849 1.38091 31.661 1.65705 31.661V32.661ZM1.94403 19.6723L2.27984 19.3018L2.27987 19.3019L1.94403 19.6723ZM0.990314 17.6556L0.490913 17.6801V17.68L0.990314 17.6556ZM1.74206 15.5558L2.11277 15.8913L2.11237 15.8917L1.74206 15.5558ZM37.8617 15.5555L37.4914 15.8915L37.4913 15.8914L37.8617 15.5555ZM38.6136 17.6555L39.113 17.68L39.113 17.68L38.6136 17.6555ZM37.6599 19.6722L37.3241 19.3018L37.3241 19.3018L37.6599 19.6722ZM35.6134 21.5276L35.9492 21.8981L35.9492 21.8981L35.6134 21.5276ZM24.4702 25.3367V24.8367H24.4954L24.5204 24.8393L24.4702 25.3367ZM26.9693 27.7911L27.4658 27.7318L27.4693 27.7613V27.7911H26.9693ZM26.99 29.3457H26.49V29.1241L26.6542 28.9753L26.99 29.3457ZM37.9469 31.661C38.223 31.661 38.4469 31.8849 38.4469 32.161C38.4469 32.4371 38.223 32.661 37.9469 32.661V31.661ZM12.6346 27.7913L12.1346 27.7847L12.135 27.7582L12.1381 27.732L12.6346 27.7913ZM22.7506 25.3227L23.0865 25.6931L22.9436 25.8227H22.7506V25.3227ZM31.4311 17.452L31.7773 17.0913L32.164 17.4624L31.767 17.8224L31.4311 17.452ZM8.17273 17.452L7.83688 17.8224L7.43981 17.4624L7.82652 17.0913L8.17273 17.452ZM12.6246 6.71715L12.1266 6.76189L12.1248 6.74123L12.1246 6.72049L12.6246 6.71715ZM26.9792 6.71707L27.4792 6.72041L27.4791 6.74115L27.4772 6.76181L26.9792 6.71707ZM24.3118 9.00387L24.3118 8.50387H24.3118V9.00387ZM1.65705 31.661H7.35462V32.661H1.65705V31.661ZM7.35462 31.661H12.6139V32.661H7.35462V31.661ZM12.1139 32.161V29.3459H13.1139V32.161H12.1139ZM12.2781 29.7164L1.60819 20.0427L2.27987 19.3019L12.9497 28.9755L12.2781 29.7164ZM1.60822 20.0427C0.933167 19.4308 0.535568 18.5902 0.490913 17.6801L1.48971 17.6311C1.52137 18.2762 1.80123 18.868 2.27984 19.3018L1.60822 20.0427ZM0.490913 17.68C0.446354 16.77 0.759628 15.8945 1.37175 15.2198L2.11237 15.8917C1.6787 16.3697 1.45812 16.9858 1.48972 17.6311L0.490913 17.68ZM1.37135 15.2202C1.38922 15.2005 1.45677 15.1357 1.52418 15.0707C1.60606 14.9918 1.72476 14.8775 1.8749 14.733C2.17522 14.4441 2.60184 14.034 3.11248 13.5433C4.13379 12.5619 5.49147 11.2579 6.84777 9.95534C8.20408 8.65279 9.55905 7.35173 10.5749 6.37631C11.0829 5.8886 11.506 5.4823 11.8022 5.19792C11.9503 5.05573 12.0667 4.94403 12.146 4.86787C12.1857 4.82979 12.2161 4.8006 12.2366 4.78092C12.2468 4.77109 12.2546 4.76363 12.2598 4.75863C12.2624 4.75613 12.2643 4.75425 12.2657 4.75299C12.2663 4.75236 12.2668 4.75189 12.2671 4.75157C12.2673 4.75141 12.2674 4.75129 12.2675 4.75121C12.2676 4.75114 12.2676 4.7511 12.6139 5.11178C12.9602 5.47246 12.9601 5.4725 12.9601 5.47258C12.96 5.47265 12.9599 5.47277 12.9597 5.47293C12.9594 5.47325 12.9589 5.47372 12.9582 5.47435C12.9569 5.47561 12.9549 5.47749 12.9523 5.47999C12.9471 5.48499 12.9394 5.49244 12.9291 5.50228C12.9086 5.52195 12.8782 5.55114 12.8386 5.58922C12.7592 5.66538 12.6429 5.77708 12.4948 5.91927C12.1986 6.20364 11.7755 6.60993 11.2675 7.09764C10.2517 8.07304 8.89672 9.37408 7.54044 10.6766C6.18415 11.9791 4.82655 13.2831 3.80536 14.2644C3.29475 14.755 2.86831 15.165 2.5682 15.4537C2.41813 15.5981 2.29976 15.712 2.2183 15.7906C2.12236 15.8831 2.10028 15.9051 2.11277 15.8913L1.37135 15.2202ZM12.1139 5.11178V3.51355H13.1139V5.11178H12.1139ZM12.1139 3.51355C12.1139 1.8514 13.4653 0.5 15.1275 0.5V1.5C14.0176 1.5 13.1139 2.40369 13.1139 3.51355H12.1139ZM15.1275 0.5H16.3927V1.5H15.1275V0.5ZM16.3927 0.5H24.4764V1.5H16.3927V0.5ZM24.4764 0.5C26.1385 0.5 27.4899 1.8514 27.4899 3.51355H26.4899C26.4899 2.40369 25.5862 1.5 24.4764 1.5V0.5ZM27.4899 3.51355V5.11178H26.4899V3.51355H27.4899ZM26.9899 5.11178C27.3362 4.75109 27.3363 4.75113 27.3363 4.75121C27.3364 4.75129 27.3365 4.75141 27.3367 4.75157C27.337 4.75189 27.3375 4.75236 27.3382 4.75299C27.3395 4.75425 27.3415 4.75613 27.3441 4.75863C27.3493 4.76363 27.357 4.77108 27.3673 4.78092C27.3878 4.80059 27.4182 4.82979 27.4578 4.86787C27.5372 4.94402 27.6535 5.05573 27.8016 5.19791C28.0978 5.48228 28.521 5.88858 29.0289 6.37628C30.0448 7.35169 31.3997 8.65272 32.756 9.95525C34.1123 11.2578 35.47 12.5618 36.4913 13.5432C37.0019 14.0338 37.4285 14.4439 37.7289 14.7328C37.879 14.8773 37.9977 14.9915 38.0796 15.0705C38.1472 15.1356 38.2144 15.2002 38.2321 15.2197L37.4913 15.8914C37.5036 15.905 37.4813 15.8827 37.3855 15.7904C37.304 15.7118 37.1857 15.5979 37.0356 15.4535C36.7355 15.1648 36.309 14.7549 35.7984 14.2642C34.7772 13.283 33.4197 11.979 32.0634 10.6765C30.7071 9.37402 29.3522 8.073 28.3363 7.09761C27.8284 6.60992 27.4052 6.20363 27.109 5.91926C26.9609 5.77708 26.8446 5.66538 26.7653 5.58922C26.7256 5.55114 26.6952 5.52195 26.6747 5.50228C26.6645 5.49245 26.6567 5.48499 26.6515 5.47999C26.6489 5.47749 26.6469 5.47561 26.6456 5.47435C26.645 5.47372 26.6445 5.47325 26.6442 5.47293C26.644 5.47277 26.6439 5.47266 26.6438 5.47258C26.6437 5.4725 26.6437 5.47246 26.9899 5.11178ZM38.232 15.2196C38.8442 15.8944 39.1576 16.7699 39.113 17.68L38.1142 17.6311C38.1458 16.9859 37.9252 16.3697 37.4914 15.8915L38.232 15.2196ZM39.113 17.68C39.0684 18.5901 38.6707 19.4308 37.9957 20.0427L37.3241 19.3018C37.8026 18.868 38.0826 18.2762 38.1142 17.631L39.113 17.68ZM37.9957 20.0426L35.9492 21.8981L35.2775 21.1572L37.3241 19.3018L37.9957 20.0426ZM24.5204 24.8393C26.0569 24.9942 27.2833 26.2041 27.4658 27.7318L26.4729 27.8504C26.3458 26.7865 25.4892 25.942 24.4201 25.8342L24.5204 24.8393ZM35.9492 21.8981L27.3258 29.7161L26.6542 28.9753L35.2775 21.1572L35.9492 21.8981ZM27.49 29.3457V32.161H26.49V29.3457H27.49ZM26.99 31.661H37.9469V32.661H26.99V31.661ZM12.1381 27.732C12.3206 26.2043 13.547 24.9944 15.0835 24.8395L15.1838 25.8345C14.1148 25.9422 13.2581 26.7867 13.1311 27.8506L12.1381 27.732ZM22.4148 24.9523L31.0953 17.0816L31.767 17.8224L23.0865 25.6931L22.4148 24.9523ZM31.0849 17.8127L22.2822 9.36469L22.9746 8.6432L31.7773 17.0913L31.0849 17.8127ZM22.6284 9.50395H16.9754V8.50395H22.6284V9.50395ZM17.3217 9.36469L8.51894 17.8127L7.82652 17.0913L16.6292 8.6432L17.3217 9.36469ZM8.50858 17.0816L17.1891 24.9523L16.5174 25.6931L7.83688 17.8224L8.50858 17.0816ZM16.8532 24.8227H22.7506V25.8227H16.8532V24.8227ZM15.292 9.50395H15.1275V8.50395H15.292V9.50395ZM15.1275 9.50395C13.5564 9.50395 12.2646 8.29705 12.1266 6.76189L13.1226 6.67241C13.2147 7.69743 14.0794 8.50395 15.1275 8.50395V9.50395ZM27.4772 6.76181C27.3393 8.29697 26.0474 9.50387 24.4764 9.50387V8.50387C25.5244 8.50387 26.3891 7.69735 26.4812 6.67233L27.4772 6.76181ZM24.4764 9.50387H24.3118V8.50387H24.4764V9.50387ZM12.6139 31.661H26.99V32.661H12.6139V31.661ZM26.4792 6.71373L26.4899 5.10844L27.4899 5.11512L27.4792 6.72041L26.4792 6.71373ZM24.3118 9.50387L22.6284 9.50395L22.6284 8.50395L24.3118 8.50387L24.3118 9.50387ZM16.9754 9.50395H15.292V8.50395H16.9754V9.50395ZM13.1139 5.10844L13.1246 6.71381L12.1246 6.72049L12.1139 5.11512L13.1139 5.10844ZM27.4693 27.7911V29.3459H26.4693V27.7911H27.4693ZM24.4702 25.8367H22.7506V24.8367H24.4702V25.8367ZM16.8532 25.8227H15.1337V24.8227H16.8532V25.8227ZM13.1345 27.798L13.1139 29.3526L12.114 29.3393L12.1346 27.7847L13.1345 27.798Z" fill="#211E1E"/>
<path d="M15.6125 5.00185C15.6125 5.68976 16.173 6.25029 16.8609 6.25029C17.5488 6.25029 18.1094 5.68976 18.1094 5.00185C18.1094 4.31395 17.5488 3.75342 16.8609 3.75342C16.173 3.75342 15.6125 4.31395 15.6125 5.00185Z" stroke="#211E1E"/>
<path d="M22.7477 6.25029C23.4356 6.25029 23.9961 5.68976 23.9961 5.00185C23.9961 4.31395 23.4356 3.75342 22.7477 3.75342C22.0598 3.75342 21.4992 4.31395 21.4992 5.00185C21.4992 5.68976 22.0598 6.25029 22.7477 6.25029Z" stroke="#211E1E"/>
</svg>

<svg width="40" height="33" fill="none" xmlns="http://www.w3.org/2000/svg"><path d="M1.657 32.661a.5.5 0 010-1v1zm.287-12.989l.336-.37-.336.37zM.99 17.656l-.5.024.5-.024zm.752-2.1l.37.335-.37-.335zm36.12 0l-.37.336.37-.336zm.752 2.1l.499.024-.5-.024zm-.954 2.016l-.336-.37.336.37zm-2.047 1.856l.336.37-.336-.37zM24.47 25.337v-.5h.025l.025.002-.05.498zm2.5 2.454l.496-.06.003.03v.03h-.5zm.02 1.555h-.5v-.222l.164-.149.336.37zm10.957 2.315a.5.5 0 010 1v-1zm-25.312-3.87l-.5-.006v-.027l.003-.026.497.06zm10.116-2.468l.335.37-.142.13h-.193v-.5zm8.68-7.871l.346-.36.387.37-.397.36-.336-.37zm-23.258 0l-.336.37-.397-.36.387-.37.346.36zm4.452-10.735l-.498.045-.002-.02V6.72l.5-.003zm14.354 0l.5.003v.021l-.002.02-.498-.044zm-2.667 2.287v-.5.5zM1.657 31.66h5.698v1H1.657v-1zm5.698 0h5.259v1h-5.26v-1zm4.759.5v-2.815h1v2.815h-1zm.164-2.445l-10.67-9.673.672-.741 10.67 9.674-.672.74zm-10.67-9.673A3.396 3.396 0 01.491 17.68l.999-.049c.031.645.311 1.237.79 1.67l-.672.742zM.491 17.68a3.394 3.394 0 01.88-2.46l.741.672a2.394 2.394 0 00-.622 1.74l-1 .048zm.88-2.46c.018-.02.086-.084.153-.15a852.44 852.44 0 011.588-1.527 20002.09 20002.09 0 017.463-7.167l1.227-1.178.344-.33.09-.087.024-.022.006-.006.001-.001.347.36.346.36-.002.002-.006.006-.023.022c-.02.02-.05.05-.09.087l-.344.33c-.296.285-.72.69-1.227 1.179L7.54 10.677a17978.107 17978.107 0 00-5.322 5.114c-.096.092-.118.114-.105.1l-.742-.67zM12.114 5.112V3.514h1v1.598h-1zm0-1.598A3.016 3.016 0 0115.127.5v1c-1.11 0-2.013.904-2.013 2.014h-1zM15.127.5h1.266v1h-1.266v-1zm1.266 0h8.083v1h-8.083v-1zm8.083 0a3.016 3.016 0 013.014 3.014h-1c0-1.11-.904-2.014-2.014-2.014v-1zm3.014 3.014v1.598h-1V3.514h1zm-.5 1.598l.346-.36.002.001.006.006.023.022.09.087.345.33a18775.064 18775.064 0 019.927 9.535l.35.337c.068.066.135.13.153.15l-.74.671c.012.014-.01-.008-.106-.1l-.35-.338-1.238-1.189a21117.165 21117.165 0 00-7.462-7.166L27.11 5.919l-.344-.33-.09-.087-.024-.022-.005-.006-.002-.001.346-.361zM38.232 15.22c.612.674.926 1.55.881 2.46l-.999-.049a2.394 2.394 0 00-.623-1.74l.741-.671zm.881 2.46a3.396 3.396 0 01-1.117 2.363l-.672-.741a2.396 2.396 0 00.79-1.671l.999.049zm-1.117 2.363l-2.047 1.855-.671-.74 2.046-1.856.672.74zM24.52 24.839a3.308 3.308 0 012.946 2.893l-.993.118a2.308 2.308 0 00-2.053-2.016l.1-.995zm11.43-2.94l-8.624 7.817-.672-.74 8.624-7.819.671.741zm-8.46 7.447v2.815h-1v-2.815h1zm-.5 2.315h10.957v1H26.99v-1zm-14.852-3.929a3.308 3.308 0 012.946-2.892l.1.994a2.307 2.307 0 00-2.053 2.017l-.993-.119zm10.277-2.78l8.68-7.87.672.74-8.68 7.871-.672-.74zm8.67-7.14l-8.803-8.447.693-.722 8.802 8.448-.692.722zm-8.457-8.308h-5.653v-1h5.653v1zm-5.306-.14l-8.803 8.449-.692-.722 8.802-8.448.693.722zm-8.813 7.718l8.68 7.87-.672.741-8.68-7.87.672-.741zm8.344 7.74h5.898v1h-5.898v-1zM15.292 9.505h-.165v-1h.165v1zm-.165 0a3.017 3.017 0 01-3-2.742l.996-.09a2.017 2.017 0 002.005 1.832v1zm12.35-2.742a3.017 3.017 0 01-3 2.742v-1a2.017 2.017 0 002.004-1.832l.996.09zm-3 2.742h-.165v-1h.164v1zM12.613 31.66H26.99v1H12.614v-1zM26.479 6.714l.01-1.606 1 .007-.01 1.605-1-.006zm-2.167 2.79h-1.684v-1h1.684v1zm-7.337 0h-1.683v-1h1.683v1zm-3.861-4.396l.01 1.606-1 .006-.01-1.605 1-.007zm14.355 22.683v1.555h-1V27.79h1zm-2.999-1.954h-1.72v-1h1.72v1zm-7.617-.014h-1.72v-1h1.72v1zm-3.719 1.975l-.02 1.555-1-.014.02-1.554 1 .013z" fill="#211E1E"/><path d="M15.613 5.002c0 .688.56 1.248 1.248 1.248a1.25 1.25 0 001.248-1.248 1.25 1.25 0 00-1.248-1.249 1.25 1.25 0 00-1.248 1.249zm7.135 1.248a1.25 1.25 0 001.248-1.248 1.25 1.25 0 00-1.248-1.249 1.25 1.25 0 00-1.249 1.249c0 .688.56 1.248 1.249 1.248z" stroke="#211E1E"/></svg>
